svgs/duotone/shekel-sign.svg

<svg xmlns="http://www.w3.org/2000/svg" viewBox="0 0 448 512"><!--! Font Awesome Pro 6.0.0-alpha3 by @fontawesome - https://fontawesome.com License - https://fontawesome.com/license (Commercial License) --><defs><style>.fa-secondary{opacity:.4}</style></defs><path class="fa-primary" d="M32 480c-17.69 0-32-14.33-32-32V64c0-17.67 14.31-32 32-32h160c70.59 0 128 57.42 128 128v160c0 17.67-14.31 32-32 32s-32-14.33-32-32V160c0-35.3-28.72-64-64-64H64v352C64 465.7 49.69 480 32 480z"/><path class="fa-secondary" d="M320 480H160c-17.69 0-32-14.33-32-32V192c0-17.67 14.31-32 32-32s32 14.33 32 32v224h128c35.28 0 64-28.7 64-64V64c0-17.67 14.31-32 32-32s32 14.33 32 32v288C448 422.6 390.6 480 320 480z"/></svg>

<svg xmlns="http://www.w3.org/2000/svg" viewBox="0 0 448 512"><!--! Font Awesome Pro 6.1.1 by @fontawesome - https://fontawesome.com License - https://fontawesome.com/license (Commercial License) Copyright 2022 Fonticons, Inc. --><defs><style>.fa-secondary{opacity:.4}</style></defs><path class="fa-primary" d="M0 64C0 46.33 14.33 32 32 32H192C262.7 32 320 89.31 320 160V320C320 337.7 305.7 352 288 352C270.3 352 256 337.7 256 320V160C256 124.7 227.3 96 192 96H64V448C64 465.7 49.67 480 32 480C14.33 480 0 465.7 0 448V64zM448 352C448 422.7 390.7 480 320 480H160C142.3 480 128 465.7 128 448V192C128 174.3 142.3 160 160 160C177.7 160 192 174.3 192 192V416H320C355.3 416 384 387.3 384 352V64C384 46.33 398.3 32 416 32C433.7 32 448 46.33 448 64V352z"/></svg>
